!!!OTL: 28. Schlaf, du liebe Kleine!
!!!ARE: Europa, Mitteleuropa, Deutschland, Elberfeld
!!!SCT: K0028
!!!TXL: @@DE
!!!YEM: Copyright 1995, estate of Helmut Schaffrath.
**kern	**text
*M2/4	*
*clefG2	*
*k[b-]	*
*F:	*
=1	=1
{8cc	1._Schlaf,
8a	du
8ff	lie-
8dd	-be
=2	=2
4cc	Klei-
8a	-ne!
8r}	.
=3	=3
{8cc	Jeʒ-
8a	-ʒo
8ff	ſchlägt
8dd	es
=4	=4
4cc	Reu-
8a	-ne;
8r}	.
=5	=5
{8g	die-
8cc	-ſes
8a	iſt
8f	die
=6	=6
8e	Schlummer-
8f	.
4g}	-ʒeit,
=7	=7
{8g	für
8cc	die
8a	Klei-
8f	-nen
=8	=8
8e	weit
8f	und
4g}	breit.
=9	=9
{8fL	Ei-
8aJ	.
8.cc	a,
16b-	po-
=10	=10
8aL	-lei-
8gJ	.
4f}	-a!
==	==
!!!AGN: Kinder -, Wiegen - Lied
!!!ONB: ESAC (Essen Associative Code) Database: KINDER
!!!AMT: simple duple
!!!AIN: vox
!!!EED: Helmut Schaffrath
!!!EEV: 1.0
!!Aus Elberfeld: Erk J. 6, 8. Suess 70. Frischbier 25. Simrock 249.
!!!GTL: I. Wiegenlieder.
!!!URL-scan: https://archive.org/details/DeutschesKinderliedUndKinderspiel/page/6/mode/1up
!!!ENC: Anna Maria Matuszewska
!!!EEV: 2024/29/08
*-	*-
